images_sukapura_svg/cmd/sc_text.svg

<svg viewBox="0 0 16 16" xmlns="http://www.w3.org/2000/svg"><path d="m.5.5h15v15h-15z" fill="#fff" stroke="#98989d" stroke-linecap="round" stroke-linejoin="round"/><path d="m8.4295089 9.7260973h-3.9399315l-.8018107 2.3501347h-1.7003915l3.698006-10.064106h1.5897969l3.6565329 10.064106h-1.7073036zm-3.4560803-1.4031686h2.9791413l-1.4584659-4.2993639h-.041473z" fill="#828282" transform="scale(1.0063526 .9936875)"/><g fill="#bababa"><rect height="1" ry=".483051" width="3" x="11" y="6"/><rect height="1" ry=".5" width="4" x="10" y="3"/><rect height="1" ry=".432203" width="12" x="2" y="13"/><rect height="1" ry=".464045" width="2" x="12" y="9"/></g></svg>

<?xml version="1.0" encoding="UTF-8" standalone="no"?>
<svg
   xmlns:dc="http://purl.org/dc/elements/1.1/"
   xmlns:cc="http://creativecommons.org/ns#"
   xmlns:rdf="http://www.w3.org/1999/02/22-rdf-syntax-ns#"
   xmlns:svg="http://www.w3.org/2000/svg"
   xmlns="http://www.w3.org/2000/svg"
   xmlns:xlink="http://www.w3.org/1999/xlink"
   xmlns:sodipodi="http://sodipodi.sourceforge.net/DTD/sodipodi-0.dtd"
   xmlns:inkscape="http://www.inkscape.org/namespaces/inkscape"
   viewBox="0 0 16 16"
   version="1.1"
   id="svg35"
   sodipodi:docname="sc_text.svg"
   inkscape:version="0.92.3 (2405546, 2018-03-11)">
  <metadata
     id="metadata41">
    <rdf:RDF>
      <cc:Work
         rdf:about="">
        <dc:format>image/svg+xml</dc:format>
        <dc:type
           rdf:resource="http://purl.org/dc/dcmitype/StillImage" />
      </cc:Work>
    </rdf:RDF>
  </metadata>
  <defs
     id="defs39" />
  <sodipodi:namedview
     pagecolor="#ffffff"
     bordercolor="#666666"
     borderopacity="1"
     objecttolerance="10"
     gridtolerance="10"
     guidetolerance="10"
     inkscape:pageopacity="0"
     inkscape:pageshadow="2"
     inkscape:window-width="1366"
     inkscape:window-height="716"
     id="namedview37"
     showgrid="true"
     inkscape:zoom="22.627417"
     inkscape:cx="6.5241026"
     inkscape:cy="9.3905107"
     inkscape:window-x="-8"
     inkscape:window-y="-8"
     inkscape:window-maximized="1"
     inkscape:current-layer="svg35">
    <inkscape:grid
       type="xygrid"
       id="grid848" />
  </sodipodi:namedview>
  <linearGradient
     id="a"
     gradientTransform="translate(-11 -1)"
     gradientUnits="userSpaceOnUse"
     x1="14"
     x2="13.79661"
     y1="22"
     y2="2.135593">
    <stop
       offset="0"
       stop-color="#0040dd"
       id="stop2" />
    <stop
       offset="1"
       stop-color="#0a84ff"
       id="stop4" />
  </linearGradient>
  <linearGradient
     id="b"
     gradientUnits="userSpaceOnUse"
     x1="0"
     x2="2.994368"
     xlink:href="#a"
     y1="14.502815"
     y2="14.502815" />
  <linearGradient
     id="c"
     gradientUnits="userSpaceOnUse"
     x1="13.005631"
     x2="15.999999"
     xlink:href="#a"
     y1="14.502815"
     y2="14.502815" />
  <linearGradient
     id="d"
     gradientUnits="userSpaceOnUse"
     x1="13.005631"
     x2="15.999999"
     xlink:href="#a"
     y1="1.497184"
     y2="1.497184" />
  <linearGradient
     id="e"
     gradientUnits="userSpaceOnUse"
     x1="0"
     x2="2.994368"
     xlink:href="#a"
     y1="1.497184"
     y2="1.497184" />
  <path
     d="m.5.5h15v15h-15z"
     id="path11"
     stroke-linejoin="round"
     stroke-linecap="round"
     stroke="#98989d"
     fill="#fff" />
  <g
     aria-label="A"
     transform="scale(1.0063526,0.9936875)"
     style="font-style:normal;font-variant:normal;font-weight:500;font-stretch:normal;font-size:14.15610504px;line-height:1.25;font-family:Roboto;-inkscape-font-specification:'Roboto Medium';letter-spacing:0px;word-spacing:0px;fill:#828282;fill-opacity:1;stroke:none;stroke-width:0.35390261"
     id="text852">
    <path
       d="M 8.4295089,9.7260973 H 4.4895774 L 3.6877667,12.076232 H 1.9873752 L 5.6853812,2.012126 H 7.2751781 L 10.931711,12.076232 H 9.2244074 Z M 4.9734286,8.3229287 H 7.9525699 L 6.494104,4.0235648 H 6.452631 Z"
       style="stroke-width:0.35390261;fill:#828282;fill-opacity:1"
       id="path872" />
  </g>
  <g
     fill="#bababa"
     id="g23">
    <rect
       height="1"
       ry=".483051"
       width="3"
       x="11"
       y="6"
       id="rect15" />
    <rect
       height="1"
       ry=".5"
       width="4"
       x="10"
       y="3"
       id="rect17" />
    <rect
       height="1"
       ry=".432203"
       width="12"
       x="2"
       y="13"
       id="rect19" />
    <rect
       height="1"
       ry=".464045"
       width="2"
       x="12"
       y="9"
       id="rect21" />
  </g>
  <g
     fill="#0a84ff"
     id="g33" />
</svg>
